svg/u1f9bb_1f3fc.svg

<svg viewBox="0 0 128 128" xmlns="http://www.w3.org/2000/svg" xmlns:xlink="http://www.w3.org/1999/xlink">
  <path d="m44.12 73.31c-5.32-5.33-32.14-20.31-22.55-45.96 5.51-14.74 18.29-16.87 18.29-16.87l2.07 9.3c-4.75 2.03-8.85 6.68-10.34 11.17-5.57 16.79 13.59 28.51 16.79 34.9l-4.26 7.46z" fill="#fff"/>
  <circle cx="101.09" cy="28.05" fill="#795548" r="10.12"/>
  <path d="m82.19 17.01c-2.04-1.18-1.67-3.78-0.49-5.82l2.97-4.53c0.56-0.86 1.67-1.16 2.59-0.7l2.88 1.44c1.03 0.52 1.42 1.79 0.85 2.8l-2.99 5.25c-1.17 2.04-3.78 2.74-5.81 1.56z" fill="#795548"/>
  <g opacity=".2">
    <path d="m101.09 18.94c5.03 0 9.12 4.09 9.12 9.12s-4.09 9.12-9.12 9.12-9.12-4.09-9.12-9.12 4.09-9.12 9.12-9.12m0-1c-5.59 0-10.12 4.53-10.12 10.12s4.53 10.12 10.12 10.12 10.12-4.53 10.12-10.12-4.54-10.12-10.12-10.12z" fill="#212121"/>
  </g>
  <g opacity=".2">
    <path d="m86.35 6.75c0.16 0 0.31 0.04 0.45 0.11l2.88 1.44c0.25 0.13 0.44 0.34 0.52 0.61s0.05 0.55-0.09 0.8l-2.98 5.24c-0.58 1.01-1.66 1.63-2.83 1.63-0.57 0-1.13-0.15-1.63-0.44-0.63-0.36-0.94-0.93-0.95-1.74-0.01-0.79 0.28-1.77 0.81-2.69l2.95-4.51c0.21-0.28 0.53-0.45 0.87-0.45m0-1c-0.66 0-1.3 0.33-1.69 0.91l-2.97 4.53c-1.18 2.04-1.54 4.64 0.49 5.82 0.67 0.39 1.4 0.57 2.13 0.57 1.47 0 2.9-0.76 3.69-2.13l2.98-5.25c0.57-1.01 0.18-2.28-0.85-2.8l-2.88-1.44c-0.29-0.14-0.6-0.21-0.9-0.21z" fill="#212121"/>
  </g>
  <radialGradient id="g" cx="66.187" cy="-2.5053" gradientTransform="matrix(.9174 .398 -.2224 .5127 4.9115 -27.565)" gradientUnits="userSpaceOnUse" r="117.44">
    <stop offset="0" stop-color="#EDB161"/>
    <stop offset=".2278" stop-color="#BA8D68"/>
    <stop offset=".342" stop-color="#AC8161"/>
    <stop offset=".5586" stop-color="#86604E"/>
    <stop offset=".6258" stop-color="#795548"/>
    <stop offset="1" stop-color="#6D4C41"/>
  </radialGradient>
  <path d="m85.94 10.06c-13.71-6.03-25.35-5.4-32.5-4.31-1.96 0.3-13.58 2.99-13.58 2.99-1.8 0.27-2.59 1.82-2.33 3.61l1.4 9.51c0.27 1.8 1.5 2.94 3.29 2.68l3.96-0.59-0.02 5.88 29.27 25.1c2.29 8.73 10.22 15.19 19.67 15.19 11.24 0 20.36-7.45 19.29-24.49-0.6-9.63-5.02-25.26-28.45-35.57z" fill="url(#g)"/>
  <g opacity=".29">
    <radialGradient id="f" cx="45.835" cy="20.047" gradientUnits="userSpaceOnUse" r="43.829">
      <stop offset=".0021234" stop-color="#212121" stop-opacity="0"/>
      <stop offset="1" stop-color="#212121"/>
    </radialGradient>
    <path d="m61.63 12.61c-8.02 0.34-16.46 3.61-23.13 9.21 0.29 1.77 1.95 2.98 3.72 2.71l3.96-0.59-0.02 5.88 29.27 25.1c2.29 8.73 10.22 15.19 19.67 15.19 1.3 0 2.57-0.11 3.8-0.31 2.26-5.87 3.78-12.73 3.78-20.98 0-17.07-15.97-37.27-41.05-36.21z" fill="url(#f)"/>
  </g>
  <g opacity=".2">
    <path d="m62.76 6.96c7.51 0 14.83 1.61 22.37 4.93 16.92 7.44 26.34 19.15 27.26 33.86 0.47 7.59-1.19 13.63-4.8 17.47-3.01 3.2-7.33 4.89-12.5 4.89-8.33 0-15.62-5.63-17.73-13.7l-0.16-0.6-0.47-0.41-28.57-24.5 0.02-4.95 0.01-2.33-2.3 0.34-3.96 0.59c-0.03 0-0.06 0.01-0.1 0.01-0.49 0-1.04-0.7-1.15-1.42l-1.17-9.09c-0.06-0.43-0.02-0.81 0.12-1.05 0.07-0.12 0.19-0.24 0.52-0.29l0.11-0.02 0.1-0.03 6.29-1.65c3.35-0.77 6.64-1.36 8.16-1.54 2.05-0.23 4.8-0.51 7.95-0.51m0-2c-3.09 0-5.81 0.26-8.19 0.54-1.64 0.2-5.05 0.81-8.4 1.58l-6.32 1.66c-1.8 0.27-2.59 1.82-2.33 3.61l1.16 9.05c0.25 1.66 1.52 3.17 3.13 3.17 0.13 0 0.26-0.01 0.39-0.03l3.96-0.59-0.02 5.88 29.27 25.1c2.29 8.73 10.22 15.19 19.67 15.19 11.24 0 20.36-7.45 19.29-24.49-0.6-9.62-5.02-25.25-28.45-35.56-9.16-4.05-16.89-5.11-23.16-5.11z" fill="#212121"/>
  </g>
  <radialGradient id="e" cx="57.074" cy="82.893" gradientUnits="userSpaceOnUse" r="65.735">
    <stop offset="0" stop-color="#E0BB95"/>
    <stop offset=".7458" stop-color="#CCA47A"/>
  </radialGradient>
  <path d="m57.29 121.01c-11.77 0-17.14-7.03-17.14-13.56 0-3.19 0.47-5.49 0.92-7.71 0.78-3.82 1.51-7.43-0.53-14.21-0.77-2.54-2.62-4.88-4.77-7.59-2.17-2.73-4.63-5.83-6.47-9.8-5.98-12.88-5.69-25.58 0.81-35.76 6.24-9.77 17.47-16.09 28.62-16.09 10.6 0 21.34 4.57 28.74 12.24 5.73 5.94 8.76 12.89 8.53 19.57-0.67 18.94-8.16 31.22-14.17 41.09-3.03 4.97-5.65 9.26-6.77 13.44-3.45 12.96-6.68 18.38-17.77 18.38z" fill="url(#e)"/>
  <path d="m58.73 17.64c10.24 0 20.63 4.42 27.78 11.83 5.4 5.59 8.37 12.37 8.15 18.59-0.65 18.59-8.04 30.71-13.98 40.44-3.09 5.06-5.75 9.43-6.92 13.8-3.48 13.04-6.35 17.38-16.48 17.38-10.85 0-15.79-6.33-15.79-12.22 0-3.05 0.45-5.28 0.89-7.44 0.81-3.99 1.58-7.76-0.56-14.87-0.84-2.79-2.77-5.22-5-8.03-2.12-2.67-4.53-5.7-6.31-9.53-5.77-12.45-5.51-24.7 0.73-34.48 6-9.4 16.79-15.47 27.49-15.47m0-2.68c-21.12 0-45.17 22.46-30.65 53.75 3.71 8 9.74 12.47 11.18 17.21 3.1 10.28-0.45 12.59-0.45 21.53 0 7.75 6.56 14.9 18.48 14.9s15.5-5.96 19.07-19.37c3.2-12.01 19.97-25.93 20.98-54.83 0.58-16.31-17.48-33.19-38.61-33.19z" fill="#BA8F63"/>
  <radialGradient id="d" cx="58.929" cy="60.833" gradientTransform="matrix(1 0 0 1.345 0 -20.989)" gradientUnits="userSpaceOnUse" r="28.89">
    <stop offset=".4893" stop-color="#E0BB95" stop-opacity=".8"/>
    <stop offset=".8603" stop-color="#CCA47A"/>
  </radialGradient>
  <path d="m88.12 50.59c0.42-12.11-12.84-24.66-28.35-24.66s-33.17 16.69-22.51 39.94c2.73 5.94 9.27 8.67 10.81 12.39 1.54 3.71-0.9 7.43-1.79 11.14-0.91 3.75-1.39 7.1 1.4 9.03 6.26 4.34 6.92-9.2 15.42-9.63 8.35-0.43 7.57 8.42 11.78-3.21 3.13-8.69 12.49-13.52 13.24-35z" fill="url(#d)"/>
  <path d="m46.6 52.81c-0.21-0.3-0.57 0.15-0.39 0.47 1.42 2.45 4.46 5.9 7.67 6.68 4.73 1.16 9.8 2.89 12.64 7.26 5.8 8.92 2.09 19.2-7.56 22.02-1.61 0.47-1.33 1.04 0.28 0.57 9.76-2.85 15.59-11.53 11.45-21.39-4.93-11.78-17.13-5.81-24.09-15.61z" fill="#BA8F63" opacity=".8"/>
  <path d="m36.12 42.79s13.04-17.04 31.24-11.56c8.54 2.57 15.44 10.67 16.75 19.55 1.49 10.06-10.24 36.04-10.24 36.04l2.93-4.15s14.53-21.67 10.96-34.97c-8.66-32.33-42.69-22.5-47.69-11.76-2.51 5.39-3.95 6.85-3.95 6.85z" fill="#BA8F63"/>
  <defs>
    <path id="c" d="m88.12 51.48c0.42-12.11-12.84-24.66-28.35-24.66s-33.17 16.69-22.51 39.94c2.73 5.94 8.96 6.64 10.81 12.39 1.79 5.6-0.86 7.62-1.75 11.34-0.91 3.75-1.43 6.91 1.36 8.83 6.26 4.34 6.92-9.2 15.42-9.63 8.35-0.43 7.57 8.42 11.78-3.21 3.13-8.68 12.49-13.52 13.24-35z"/>
  </defs>
  <clipPath id="a">
    <use xlink:href="#c"/>
  </clipPath>
  <g clip-path="url(#a)">
    <path d="m51.4 75.05c-1.43-2.32-5.97-5.67-10.5-3.07-2.17 1.24 3.84 15.37 5 17.16 0.23 0.37 0.35 1.1 2.18 0.38 1.61-0.63 3.73-2.78 4.31-5.21 0.7-2.91 0.82-6.34-0.99-9.26z" fill="#A57E59"/>
  </g>
  <g clip-path="url(#a)">
    <linearGradient id="b" gradientUnits="userSpaceOnUse" x1="38.006" x2="60.409" y1="57.35" y2="87.469">
      <stop offset="0" stop-color="#EDB161"/>
      <stop offset=".3445" stop-color="#D1A263"/>
      <stop offset=".9961" stop-color="#795548"/>
    </linearGradient>
    <path d="m61.59 72.23c-0.01-0.01-0.01-0.01-0.01-0.02-2.54-3.16-12.13-7.42-12.13-7.42l-4.26 5.32 0.32 3.94h0.01c-0.88 1.5-1.4 3.24-1.4 5.11 0 5.59 4.53 10.12 10.12 10.12s10.12-4.53 10.12-10.12c-0.01-2.69-1.06-5.12-2.77-6.93z" fill="url(#b)"/>
    <g opacity=".2">
      <path d="m50.03 67.26c3.54 1.68 8.43 4.36 9.93 6.14l0.05 0.07 0.12 0.14c1.43 1.52 2.22 3.49 2.22 5.56 0 4.47-3.64 8.12-8.12 8.12s-8.12-3.64-8.12-8.12c0-2.08 1.12-4.11 1.13-4.13l0.3-0.54-0.05-0.61-0.26-3.14 2.8-3.49m-0.59-2.47-4.26 5.32 0.32 3.94s-1.39 2.45-1.39 5.11c0 5.59 4.53 10.12 10.12 10.12s10.12-4.53 10.12-10.12c0-2.69-1.06-5.12-2.77-6.94-0.01-0.01-0.01-0.01-0.01-0.02-2.54-3.15-12.13-7.41-12.13-7.41z" fill="#212121"/>
    </g>
  </g>
  <path d="m40.39 15.28s-10.65 4.26-13.81 13.88c-6.68 20.3 8 25.03 19.13 40.42" fill="none" stroke="#5D4037" stroke-miterlimit="10" stroke-width="3.1943"/>
  <g opacity=".54">
    <path d="m44 72.5c-0.84-0.77-2-1.68-3.41-2.79-9.27-7.3-26.52-20.88-18.55-42.19 4.75-12.7 15.12-15.88 17.44-16.45l1.87 8.42c-4.59 2.11-8.67 6.6-10.23 11.31-4.17 12.57 4.98 22.12 11.66 29.1 2.22 2.32 4.14 4.33 5.03 5.94l-3.81 6.66z" fill="#FCE8B2"/>
    <path d="m39.1 11.68 1.67 7.53c-4.56 2.23-8.57 6.73-10.13 11.43-4.26 12.85 5.39 22.93 11.77 29.6 2.08 2.18 3.91 4.08 4.82 5.6l-3.36 5.88c-0.8-0.69-1.8-1.48-2.97-2.4-9.17-7.22-26.23-20.65-18.39-41.62 4.45-11.89 13.63-15.23 16.59-16.02m0.76-1.2s-12.78 2.13-18.29 16.87c-9.59 25.65 17.23 40.63 22.55 45.96l4.26-7.45c-3.19-6.39-22.36-18.1-16.79-34.9 1.49-4.49 5.59-9.14 10.34-11.17l-2.07-9.31z" fill="#757575"/>
  </g>
  <polygon fill="#795548" points="41.99 71.18 45.14 74.5 51.57 65.85 47.31 63.72"/>
  <g opacity=".2">
    <path d="m47.65 65.08 2.31 1.15-4.92 6.61-1.68-1.77 4.29-5.99m-0.34-1.36-5.32 7.45 3.15 3.33 6.43-8.65-4.26-2.13z" fill="#212121"/>
  </g>
  <path d="m48.38 16.87-9.68 4.53-1.05-8.38c-0.53-1.96 0.06-3.87 2.66-4.41l5.94-1.32 2.13 9.58z" fill="#795548"/>
  <g opacity=".2">
    <path d="m38.88 21.5-1.27-8.3c-0.21-1.53-0.26-3.88 2.25-4.45l6.32-1.66 0.49 2.07-4.58 1.01s-2.57 0.5-2.38 2.72l1.11 7.52-1.94 1.09z" fill="#212121"/>
  </g>
</svg>

<svg viewBox="0 0 128 128" xmlns="http://www.w3.org/2000/svg">
  <defs>
    <radialGradient id="g" cx="59.723324" cy="-51.252046" gradientTransform="matrix(0.9174 0.398 -0.2224 0.5127 0 0)" gradientUnits="userSpaceOnUse" r="117.44">
      <stop offset="0" stop-color="#EDB161"/>
      <stop offset=".2278" stop-color="#BA8D68"/>
      <stop offset=".342" stop-color="#AC8161"/>
      <stop offset=".5586" stop-color="#86604E"/>
      <stop offset=".6258" stop-color="#795548"/>
      <stop offset="1" stop-color="#6D4C41"/>
    </radialGradient>
    <radialGradient id="d" cx="58.929" cy="45.227796" gradientTransform="matrix(1 0 0 1.345 0 0)" gradientUnits="userSpaceOnUse" r="28.89">
      <stop offset=".4893" stop-color="#E0BB95" stop-opacity=".8"/>
      <stop offset=".8603" stop-color="#CCA47A"/>
    </radialGradient>
    <radialGradient id="e" cx="57.074" cy="82.893" gradientUnits="userSpaceOnUse" r="65.735">
      <stop offset="0" stop-color="#E0BB95"/>
      <stop offset=".7458" stop-color="#CCA47A"/>
    </radialGradient>
    <radialGradient id="f" cx="45.835" cy="20.047" gradientUnits="userSpaceOnUse" r="43.829">
      <stop offset=".0021234" stop-color="#212121" stop-opacity="0"/>
      <stop offset="1" stop-color="#212121"/>
    </radialGradient>
    <linearGradient id="b" gradientUnits="userSpaceOnUse" x1="38.006" x2="60.409" y1="57.35" y2="87.469">
      <stop offset="0" stop-color="#EDB161"/>
      <stop offset=".3445" stop-color="#D1A263"/>
      <stop offset=".9961" stop-color="#795548"/>
    </linearGradient>
  </defs>
  <path d="M44.12,73.31 C38.8,67.98 11.98,53 21.57,27.35 C27.08,12.61 39.86,10.48 39.86,10.48 L41.93,19.78 C37.18,21.81 33.08,26.46 31.59,30.95 C26.02,47.74 45.18,59.46 48.38,65.85 L44.12,73.31 Z" fill="#fff"/>
  <path d="M111.21,28.05 A10.12 10.12 0 1 1 90.97,28.05 A10.12 10.12 0 1 1 111.21,28.05 Z" fill="#795548"/>
  <path d="M82.19,17.01 C80.15,15.83 80.52,13.23 81.7,11.19 L84.67,6.66 C85.23,5.8 86.34,5.5 87.26,5.96 L90.14,7.4 C91.17,7.92 91.56,9.19 90.99,10.2 L88,15.45 C86.83,17.49 84.22,18.19 82.19,17.01 Z" fill="#795548"/>
  <path d="M101.09,18.94 C106.12,18.94 110.21,23.03 110.21,28.06 C110.21,33.09 106.12,37.18 101.09,37.18 C96.06,37.18 91.97,33.09 91.97,28.06 C91.97,23.03 96.06,18.94 101.09,18.94 M101.09,17.94 C95.5,17.94 90.97,22.47 90.97,28.06 C90.97,33.65 95.5,38.18 101.09,38.18 C106.68,38.18 111.21,33.65 111.21,28.06 C111.21,22.47 106.67,17.94 101.09,17.94 Z" fill="#212121" opacity="0.2"/>
  <path d="M86.35,6.75 C86.51,6.75 86.66,6.79 86.8,6.86 L89.68,8.3 C89.93,8.43 90.12,8.64 90.2,8.91 C90.28,9.18 90.25,9.46 90.11,9.71 L87.13,14.95 C86.55,15.96 85.47,16.58 84.3,16.58 C83.73,16.58 83.17,16.43 82.67,16.14 C82.04,15.78 81.73,15.21 81.72,14.4 C81.71,13.61 82,12.63 82.53,11.71 L85.48,7.2 C85.69,6.92 86.01,6.75 86.35,6.75 M86.35,5.75 C85.69,5.75 85.05,6.08 84.66,6.66 L81.69,11.19 C80.51,13.23 80.15,15.83 82.18,17.01 C82.85,17.4 83.58,17.58 84.31,17.58 C85.78,17.58 87.21,16.82 88,15.45 L90.98,10.2 C91.55,9.19 91.16,7.92 90.13,7.4 L87.25,5.96 C86.96,5.82 86.65,5.75 86.35,5.75 Z" fill="#212121" opacity="0.2"/>
  <path d="M85.94,10.06 C72.23,4.03 60.59,4.66 53.44,5.75 C51.48,6.05 39.86,8.74 39.86,8.74 C38.06,9.01 37.27,10.56 37.53,12.35 L38.93,21.86 C39.2,23.66 40.43,24.8 42.22,24.54 L46.18,23.95 L46.16,29.83 L75.43,54.93 C77.72,63.66 85.65,70.12 95.1,70.12 C106.34,70.12 115.46,62.67 114.39,45.63 C113.79,36 109.37,20.37 85.94,10.06 Z" fill="url(#g)"/>
  <path d="M61.63,12.61 C53.61,12.95 45.17,16.22 38.5,21.82 C38.79,23.59 40.45,24.8 42.22,24.53 L46.18,23.94 L46.16,29.82 L75.43,54.92 C77.72,63.65 85.65,70.11 95.1,70.11 C96.4,70.11 97.67,70 98.9,69.8 C101.16,63.93 102.68,57.07 102.68,48.82 C102.68,31.75 86.71,11.55 61.63,12.61 Z" fill="url(#f)" opacity="0.29"/>
  <path d="M62.76,6.96 C70.27,6.96 77.59,8.57 85.13,11.89 C102.05,19.33 111.47,31.04 112.39,45.75 C112.86,53.34 111.2,59.38 107.59,63.22 C104.58,66.42 100.26,68.11 95.09,68.11 C86.76,68.11 79.47,62.48 77.36,54.41 L77.2,53.81 L76.73,53.4 L48.16,28.9 L48.18,23.95 L48.19,21.62 L45.89,21.96 L41.93,22.55 C41.9,22.55 41.87,22.56 41.83,22.56 C41.34,22.56 40.79,21.86 40.68,21.14 L39.51,12.05 C39.45,11.62 39.49,11.24 39.63,11 C39.7,10.88 39.82,10.76 40.15,10.71 L40.26,10.69 L40.36,10.66 L46.65,9.01 C50,8.24 53.29,7.65 54.81,7.47 C56.86,7.24 59.61,6.96 62.76,6.96 M62.76,4.96 C59.67,4.96 56.95,5.22 54.57,5.5 C52.93,5.7 49.52,6.31 46.17,7.08 L39.85,8.74 C38.05,9.01 37.26,10.56 37.52,12.35 L38.68,21.4 C38.93,23.06 40.2,24.57 41.81,24.57 C41.94,24.57 42.07,24.56 42.2,24.54 L46.16,23.95 L46.14,29.83 L75.41,54.93 C77.7,63.66 85.63,70.12 95.08,70.12 C106.32,70.12 115.44,62.67 114.37,45.63 C113.77,36.01 109.35,20.38 85.92,10.07 C76.76,6.02 69.03,4.96 62.76,4.96 Z" fill="#212121" opacity="0.2"/>
  <path d="M57.29,121.01 C45.52,121.01 40.15,113.98 40.15,107.45 C40.15,104.26 40.62,101.96 41.07,99.74 C41.85,95.92 42.58,92.31 40.54,85.53 C39.77,82.99 37.92,80.65 35.77,77.94 C33.6,75.21 31.14,72.11 29.3,68.14 C23.32,55.26 23.61,42.56 30.11,32.38 C36.35,22.61 47.58,16.29 58.73,16.29 C69.33,16.29 80.07,20.86 87.47,28.53 C93.2,34.47 96.23,41.42 96,48.1 C95.33,67.04 87.84,79.32 81.83,89.19 C78.8,94.16 76.18,98.45 75.06,102.63 C71.61,115.59 68.38,121.01 57.29,121.01 Z" fill="url(#e)"/>
  <path d="M58.73,17.64 C68.97,17.64 79.36,22.06 86.51,29.47 C91.91,35.06 94.88,41.84 94.66,48.06 C94.01,66.65 86.62,78.77 80.68,88.5 C77.59,93.56 74.93,97.93 73.76,102.3 C70.28,115.34 67.41,119.68 57.28,119.68 C46.43,119.68 41.49,113.35 41.49,107.46 C41.49,104.41 41.94,102.18 42.38,100.02 C43.19,96.03 43.96,92.26 41.82,85.15 C40.98,82.36 39.05,79.93 36.82,77.12 C34.7,74.45 32.29,71.42 30.51,67.59 C24.74,55.14 25,42.89 31.24,33.11 C37.24,23.71 48.03,17.64 58.73,17.64 M58.73,14.96 C37.61,14.96 13.56,37.42 28.08,68.71 C31.79,76.71 37.82,81.18 39.26,85.92 C42.36,96.2 38.81,98.51 38.81,107.45 C38.81,115.2 45.37,122.35 57.29,122.35 C69.21,122.35 72.79,116.39 76.36,102.98 C79.56,90.97 96.33,77.05 97.34,48.15 C97.92,31.84 79.86,14.96 58.73,14.96 Z" fill="#BA8F63"/>
  <path d="M88.12,50.59 C88.54,38.48 75.28,25.93 59.77,25.93 C44.26,25.93 26.6,42.62 37.26,65.87 C39.99,71.81 46.53,74.54 48.07,78.26 C49.61,81.97 47.17,85.69 46.28,89.4 C45.37,93.15 44.89,96.5 47.68,98.43 C53.94,102.77 54.6,89.23 63.1,88.8 C71.45,88.37 70.67,97.22 74.88,85.59 C78.01,76.9 87.37,72.07 88.12,50.59 Z" fill="url(#d)"/>
  <path d="M46.6,52.81 C46.39,52.51 46.03,52.96 46.21,53.28 C47.63,55.73 50.67,59.18 53.88,59.96 C58.61,61.12 63.68,62.85 66.52,67.22 C72.32,76.14 68.61,86.42 58.96,89.24 C57.35,89.71 57.63,90.28 59.24,89.81 C69,86.96 74.83,78.28 70.69,68.42 C65.76,56.64 53.56,62.61 46.6,52.81 Z" fill="#BA8F63" opacity="0.8"/>
  <path d="M36.12,42.79 C36.12,42.79 49.16,25.75 67.36,31.23 C75.9,33.8 82.8,41.9 84.11,50.78 C85.6,60.84 73.87,86.82 73.87,86.82 L76.8,82.67 C76.8,82.67 91.33,61 87.76,47.7 C79.1,15.37 45.07,25.2 40.07,35.94 C37.56,41.33 36.12,42.79 36.12,42.79 Z" fill="#BA8F63"/>
  <path d="M51.4,75.05 C53.21,77.97 53.09,81.4 52.39,84.31 C51.81,86.74 49.69,88.89 48.08,89.52 C47.285,89.833 46.813,89.872 46.514,89.786 C46.764,88.978 47.086,88.242 47.405,87.514 C48.385,85.272 49.333,83.102 48.07,79.15 C46.908,75.537 44.017,73.918 41.351,71.741 C45.728,69.601 50.017,72.807 51.4,75.05 Z" fill="#A57E59"/>
  <path d="M61.59,72.23 C63.3,74.04 64.35,76.47 64.36,79.16 C64.36,84.75 59.83,89.28 54.24,89.28 C51.739,89.28 49.45,88.373 47.684,86.87 C48.546,84.84 49.212,82.724 48.07,79.15 C47.466,77.273 46.395,75.934 45.132,74.775 C45.252,74.528 45.382,74.286 45.52,74.05 L45.51,74.05 L45.19,70.11 L49.45,64.79 C49.45,64.79 59.04,69.05 61.58,72.21 C61.58,72.22 61.58,72.22 61.59,72.23 Z" fill="url(#b)"/>
  <path d="M50.03,67.26 L47.23,70.75 L47.49,73.89 L47.54,74.5 L47.24,75.04 C47.235,75.05 46.933,75.598 46.643,76.411 C46.192,75.816 45.684,75.282 45.14,74.783 C45.346,74.322 45.5,74.05 45.5,74.05 L45.18,70.11 L49.44,64.79 C49.44,64.79 59.03,69.05 61.57,72.2 C61.57,72.21 61.57,72.21 61.58,72.22 C63.29,74.04 64.35,76.47 64.35,79.16 C64.35,84.75 59.82,89.28 54.23,89.28 C51.732,89.28 49.446,88.375 47.681,86.876 C47.961,86.217 48.221,85.548 48.405,84.824 C49.881,86.344 51.947,87.29 54.23,87.29 C58.71,87.29 62.35,83.64 62.35,79.17 C62.35,77.1 61.56,75.13 60.13,73.61 L60.01,73.47 L59.96,73.4 C58.46,71.62 53.57,68.94 50.03,67.26 Z" fill="#212121" opacity="0.2"/>
  <path d="M40.983,16.763 Q38.513,17.751 35.621,19.895 Q29.914,24.128 28.097,29.658 Q25.032,38.975 28.001,45.681 Q29.883,49.931 37.35,57.606 Q43.863,64.301 47.004,68.644 L44.416,70.516 Q41.412,66.362 35.06,59.834 Q27.194,51.748 25.08,46.975 Q21.613,39.145 25.063,28.662 Q27.196,22.167 33.719,17.33 Q36.942,14.939 39.797,13.797 Z" fill="#5D4037"/>
  <g opacity="0.54">
    <path d="M44,72.5 C43.16,71.73 42,70.82 40.59,69.71 C31.32,62.41 14.07,48.83 22.04,27.52 C26.79,14.82 37.16,11.64 39.48,11.07 L41.35,19.49 C36.76,21.6 32.68,26.09 31.12,30.8 C26.95,43.37 36.1,52.92 42.78,59.9 C45,62.22 46.92,64.23 47.81,65.84 L44,72.5 Z" fill="#FCE8B2"/>
    <path d="M39.1,11.68 L40.77,19.21 C36.21,21.44 32.2,25.94 30.64,30.64 C26.38,43.49 36.03,53.57 42.41,60.24 C44.49,62.42 46.32,64.32 47.23,65.84 L43.87,71.72 C43.07,71.03 42.07,70.24 40.9,69.32 C31.73,62.1 14.67,48.67 22.51,27.7 C26.96,15.81 36.14,12.47 39.1,11.68 M39.86,10.48 C39.86,10.48 27.08,12.61 21.57,27.35 C11.98,53 38.8,67.98 44.12,73.31 L48.38,65.86 C45.19,59.47 26.02,47.76 31.59,30.96 C33.08,26.47 37.18,21.82 41.93,19.79 L39.86,10.48 Z" fill="#757575"/>
  </g>
  <path d="M41.99,71.18 L45.14,74.5 L51.57,65.85 L47.31,63.72 Z" fill="#795548"/>
  <path d="M47.65,65.08 L49.96,66.23 L45.04,72.84 L43.36,71.07 L47.65,65.08 M47.31,63.72 L41.99,71.17 L45.14,74.5 L51.57,65.85 L47.31,63.72 Z" fill="#212121" opacity="0.2"/>
  <path d="M48.38,16.87 L38.7,21.4 L37.65,13.02 C37.12,11.06 37.71,9.15 40.31,8.61 L46.25,7.29 L48.38,16.87 Z" fill="#795548"/>
  <path d="M38.88,21.5 L37.61,13.2 C37.4,11.67 37.35,9.32 39.86,8.75 L46.18,7.09 L46.67,9.16 L42.09,10.17 C42.09,10.17 39.52,10.67 39.71,12.89 L40.82,20.41 L38.88,21.5 Z" fill="#212121" opacity="0.2"/>
</svg>
